icons/ship-2-fill.svg

<svg xmlns="http://www.w3.org/2000/svg" width="24" height="24" fill="none"><g clip-path="url(#a)"><g><path fill="#121212" d="M9 4H14.446C14.6156 4 14.7824 4.04314 14.9308 4.12536C15.0791 4.20758 15.2041 4.32617 15.294 4.47L18.75 10H23.158C23.2448 9.99994 23.3302 10.0225 23.4056 10.0654C23.4811 10.1084 23.5441 10.1702 23.5884 10.2449C23.6327 10.3196 23.6568 10.4045 23.6583 10.4913C23.6598 10.5781 23.6387 10.6638 23.597 10.74L19.66 17.957C18.7794 18.075 17.8832 17.9559 17.064 17.6118C16.2448 17.2678 15.5323 16.7114 15 16C14.5347 16.6214 13.9309 17.1258 13.2365 17.473C12.5421 17.8202 11.7763 18.0006 11 18C10.2237 18.0006 9.45788 17.8202 8.76351 17.473C8.06913 17.1258 7.4653 16.6214 7 16C6.47889 16.6962 5.78494 17.2443 4.98687 17.5898C4.1888 17.9354 3.3143 18.0664 2.45 17.97L1.214 11.179C1.18778 11.0349 1.19354 10.8867 1.23089 10.7451C1.26823 10.6034 1.33624 10.4717 1.43011 10.3592C1.52398 10.2468 1.64141 10.1563 1.7741 10.0942C1.90679 10.0321 2.0515 9.99998 2.198 10H3V5C3 4.73478 3.10536 4.48043 3.29289 4.29289C3.48043 4.10536 3.73478 4 4 4H5V1H9V4ZM5 10H16.392L13.892 6H5V10ZM3 20C4.47626 20.002 5.90107 19.4578 7 18.472C8.09893 19.4578 9.52374 20.002 11 20C12.4763 20.002 13.9011 19.4578 15 18.472C16.0989 19.4578 17.5237 20.002 19 20H21V22H19C17.5956 22.0023 16.2157 21.6331 15 20.93C13.7843 21.6331 12.4044 22.0023 11 22C9.59564 22.0023 8.21565 21.6331 7 20.93C5.78435 21.6331 4.40436 22.0023 3 22H1V20H3Z"/></g></g><defs><clipPath id="a"><rect width="24" height="24" fill="white"/></clipPath></defs></svg>

<svg width="24" height="24" fill="none" xmlns="http://www.w3.org/2000/svg"><g clip-path="url(#a)"><path d="M9 4h5.446a1 1 0 0 1 .848.47L18.75 10h4.408a.5.5 0 0 1 .439.74l-3.937 7.217A4.992 4.992 0 0 1 15 16a4.992 4.992 0 0 1-4 2 4.992 4.992 0 0 1-4-2 4.992 4.992 0 0 1-4.55 1.97l-1.236-6.791A1 1 0 0 1 2.198 10H3V5a1 1 0 0 1 1-1h1V1h4v3Zm-4 6h11.392l-2.5-4H5v4ZM3 20a5.978 5.978 0 0 0 4-1.528A5.978 5.978 0 0 0 11 20a5.978 5.978 0 0 0 4-1.528A5.978 5.978 0 0 0 19 20h2v2h-2a7.963 7.963 0 0 1-4-1.07A7.963 7.963 0 0 1 11 22a7.963 7.963 0 0 1-4-1.07A7.963 7.963 0 0 1 3 22H1v-2h2Z" /></g><defs><clipPath id="a"><path fill="#fff" d="M0 0h24v24H0z"/></clipPath></defs></svg>
